X:1
T:THE ENTERTAINER
T:THE ENTERTAINER
T:Scott Joplin
T:Arrangement: Christophe Baste
C:Scott Joplin
%%score ( 1 2 )
L:1/8
Q:1/4=110
M:4/4
K:C
V:1 treble-8 nm="Guitar" snm="Guit."
V:2 treble-8 
V:1
 d'e'c'a- ab g2 | decA- ABG-G | DECA,- A,B,A,^G, | G,4 [GBg]2 D_E |:S[Q:1/4=125] Ec- cE c2 Ec- | %5
 c4 z [Ec] !-(!d!-)!_e | [Ge][Ec] [Fd] [Ge]2 [DB] [Fd]2 | !2![CEc]2 G,2 A,2 D_E | Ec- cE c2 Ec- | %9
 c4 z G AG | !4!^F!2!A!1!ce- e!4!d!1!c!3!A | d4 A,2 D_E | Ec- cE c2 Ec- | c4 z [Ec] !-(!d!-)!_e | %14
 [Ge][Ec] [Fd] [Ge]2 [DB] [Fd]2 | [Ec]6 cd | e!1!c!4!de- e!2!c!4!dc | e!1!cde- ecdc | %18
 [Ge][Ec][Fd][Ge]- [Ge][DB] [Fd]2!dacoda! |1 [Ec]2 G,2 A,2 D_E :|2 [Ec]4 z ef^f || %21
 [eg]2 [ea][eg]- [eg]ef^f | [eg]2 [ea][eg]- [eg]e cG | ABcd edcd | c"_H"(EF)G"_P" AG[ce][df] | %25
 [eg]2 [ea][eg]- [eg]ef^f | [eg]2 [ea][eg]- [Ceg][eg] a^a | [Bdb][Bdb]- [Bdb]b- ba ^fd | %28
 g4 z ef^f | [eg]2 [ea][eg]- [eg]ef^f | [eg]2 [ea][eg]- [eg]e cG | ABcd edcd | c2 Gc- cG^FG | %33
 c2 Ac- cAcA | Gceg- gecG | [^FA]2 [FAc]2 [GBe] d3 |O !2![CEc]2 G,2 A,2 D_E!D.S.! || %37
 [Ec]2 z2 [ec']4 |] %38
V:2
 x8 | x8 | x8 | x6 !2!B, x |: !3!C2 G,2 C2 G,2 | !2!F,2 !4!F2 !4!_A, x !-(!F!-)!^F | %6
 !3!C2 x2 !2!G,4 | x6 B,2 | C2 G,2 C2 G, x | F,2 F2 E,4 | A,2 C2 D2 E2 | G,2 G,2 A,2 B,2 | %12
 C2 G,2 C2 G,2 | F,2 F2 _A, x !-(!F!-)!^F | C2 x2 G,4 | C2 G,2 C4 | !3!C2 G2 !1!_B,2 G2 | %17
 A,2 !3!F2 ^G,2 !3!F2 | !3!G,2 x2 !2!G,4 |1 !3!C2 x4 B,2 :|2 C2 G,2 C2 z2 || C2 G,2 C2 z2 | %22
 C2 G,2 C2 E2 | F,2 A,2 C2 [F_A]2 | C4 x2 EF | C2 G,2 C2 z2 | C2 G,2 x2 [G,_e]2 | G,2 G2 D4 | %28
 G,2 D2 G2 x2 | C2 G,2 C2 z2 | C2 G,2 C2 E2 | F,2 A,2 C2 [F_A]2 | CE x6 | F,2 C2 ^F,2 C2 | %34
 G,2 C2 E2 C2 | D2 C2 G,2 D2 | x6 B,2 || x2 G2 !arpeggio!C2 x2 |] %38

